pro/src/icons/full-archive.svg

<svg xmlns="http://www.w3.org/2000/svg" width="48" height="48" fill="none"><g id="icon" fill="currentColor"><path d="M42 4H6a2 2 0 0 0-2 2v3a2 2 0 0 0 2 2h36a2 2 0 0 0 2-2V6a2 2 0 0 0-2-2"/><path fill-rule="evenodd" d="M40 14H8c-1.1 0-2 .9-2 2l2 26c0 1.1.9 2 2 2h28c1.1 0 2-.9 2-2l2-26c0-1.1-.9-2-2-2m-7 10H15c-1.1 0-2-.9-2-2s.9-2 2-2h18c1.1 0 2 .9 2 2s-.9 2-2 2" clip-rule="evenodd"/></g></svg>

<svg width="48" height="48" viewBox="0 0 48 48" fill="none" xmlns="http://www.w3.org/2000/svg">
    <g id="icon">
        <path d="M42 4H6C4.89543 4 4 4.89543 4 6V9C4 10.1046 4.89543 11 6 11H42C43.1046 11 44 10.1046 44 9V6C44 4.89543 43.1046 4 42 4Z" fill="currentColor"/>
        <path fill-rule="evenodd" clip-rule="evenodd" d="M40 14H8C6.9 14 6 14.9 6 16L8 42C8 43.1 8.9 44 10 44H38C39.1 44 40 43.1 40 42L42 16C42 14.9 41.1 14 40 14ZM33 24H15C13.9 24 13 23.1 13 22C13 20.9 13.9 20 15 20H33C34.1 20 35 20.9 35 22C35 23.1 34.1 24 33 24Z" fill="currentColor"/>
    </g>
</svg>
